static/img/services/env0.svg

<?xml version="1.0" encoding="UTF-8"?>
<svg width="160px" height="40px" viewBox="0 0 160 40" version="1.1" xmlns="http://www.w3.org/2000/svg" xmlns:xlink="http://www.w3.org/1999/xlink">
    <title>5ceab5395d0f47937d9de7c7_Env0-Color Copy</title>
    <defs>
        <linearGradient x1="121.803038%" y1="50%" x2="-379.740323%" y2="50%" id="linearGradient-1">
            <stop stop-color="#fff" offset="0%"></stop>
            <stop stop-color="#fff" offset="18%"></stop>
            <stop stop-color="#fff" offset="34%"></stop>
            <stop stop-color="#fff" offset="43%"></stop>
            <stop stop-color="#fff" offset="51%"></stop>
            <stop stop-color="#fff" offset="56%"></stop>
            <stop stop-color="#fff" offset="58%"></stop>
            <stop stop-color="#fff" offset="64%"></stop>
            <stop stop-color="#fff" offset="69%"></stop>
            <stop stop-color="#fff" offset="74%"></stop>
            <stop stop-color="#fff" offset="77%"></stop>
            <stop stop-color="#fff" offset="82%"></stop>
            <stop stop-color="#fff" offset="87%"></stop>
            <stop stop-color="#fff" offset="91%"></stop>
            <stop stop-color="#fff" offset="95%"></stop>
        </linearGradient>
        <linearGradient x1="-71.1823105%" y1="49.9755022%" x2="113.592058%" y2="49.9755022%" id="linearGradient-2">
            <stop stop-color="#fff" offset="0%"></stop>
            <stop stop-color="#fff" offset="18%"></stop>
            <stop stop-color="#fff" offset="34%"></stop>
            <stop stop-color="#fff" offset="43%"></stop>
            <stop stop-color="#fff" offset="51%"></stop>
            <stop stop-color="#fff" offset="56%"></stop>
            <stop stop-color="#fff" offset="58%"></stop>
            <stop stop-color="#fff" offset="64%"></stop>
            <stop stop-color="#fff" offset="69%"></stop>
            <stop stop-color="#fff" offset="74%"></stop>
            <stop stop-color="#fff" offset="77%"></stop>
            <stop stop-color="#fff" offset="82%"></stop>
            <stop stop-color="#fff" offset="87%"></stop>
            <stop stop-color="#fff" offset="91%"></stop>
            <stop stop-color="#fff" offset="95%"></stop>
        </linearGradient>
        <linearGradient x1="50%" y1="-376.457619%" x2="50%" y2="142.699657%" id="linearGradient-3">
            <stop stop-color="#fff" offset="0%"></stop>
            <stop stop-color="#fff" offset="18%"></stop>
            <stop stop-color="#fff" offset="34%"></stop>
            <stop stop-color="#fff" offset="43%"></stop>
            <stop stop-color="#fff" offset="51%"></stop>
            <stop stop-color="#fff" offset="56%"></stop>
            <stop stop-color="#fff" offset="58%"></stop>
            <stop stop-color="#fff" offset="64%"></stop>
            <stop stop-color="#fff" offset="69%"></stop>
            <stop stop-color="#fff" offset="74%"></stop>
            <stop stop-color="#fff" offset="77%"></stop>
            <stop stop-color="#fff" offset="82%"></stop>
            <stop stop-color="#fff" offset="87%"></stop>
            <stop stop-color="#fff" offset="91%"></stop>
            <stop stop-color="#fff" offset="95%"></stop>
        </linearGradient>
        <linearGradient x1="-12.3646209%" y1="49.9755022%" x2="178.898917%" y2="49.9755022%" id="linearGradient-4">
            <stop stop-color="#fff" offset="0%"></stop>
            <stop stop-color="#fff" offset="18%"></stop>
            <stop stop-color="#fff" offset="34%"></stop>
            <stop stop-color="#fff" offset="43%"></stop>
            <stop stop-color="#fff" offset="51%"></stop>
            <stop stop-color="#fff" offset="56%"></stop>
            <stop stop-color="#fff" offset="58%"></stop>
            <stop stop-color="#fff" offset="64%"></stop>
            <stop stop-color="#fff" offset="69%"></stop>
            <stop stop-color="#fff" offset="74%"></stop>
            <stop stop-color="#fff" offset="77%"></stop>
            <stop stop-color="#fff" offset="82%"></stop>
            <stop stop-color="#fff" offset="87%"></stop>
            <stop stop-color="#fff" offset="91%"></stop>
            <stop stop-color="#fff" offset="95%"></stop>
        </linearGradient>
        <linearGradient x1="127.682509%" y1="50%" x2="-238.265556%" y2="50%" id="linearGradient-5">
            <stop stop-color="#fff" offset="0%"></stop>
            <stop stop-color="#fff" offset="18%"></stop>
            <stop stop-color="#fff" offset="40%"></stop>
            <stop stop-color="#fff" offset="52%"></stop>
            <stop stop-color="#fff" offset="63%"></stop>
            <stop stop-color="#fff" offset="70%"></stop>
            <stop stop-color="#fff" offset="72%"></stop>
            <stop stop-color="#fff" offset="80%"></stop>
            <stop stop-color="#fff" offset="87%"></stop>
            <stop stop-color="#fff" offset="93%"></stop>
        </linearGradient>
        <linearGradient x1="299.118079%" y1="50%" x2="-66.8299853%" y2="50%" id="linearGradient-6">
            <stop stop-color="#fff" offset="0%"></stop>
            <stop stop-color="#fff" offset="18%"></stop>
            <stop stop-color="#fff" offset="40%"></stop>
            <stop stop-color="#fff" offset="52%"></stop>
            <stop stop-color="#fff" offset="63%"></stop>
            <stop stop-color="#fff" offset="70%"></stop>
            <stop stop-color="#fff" offset="72%"></stop>
            <stop stop-color="#fff" offset="80%"></stop>
            <stop stop-color="#fff" offset="87%"></stop>
            <stop stop-color="#fff" offset="93%"></stop>
        </linearGradient>
        <linearGradient x1="-42.8844927%" y1="213.497128%" x2="155.424378%" y2="-135.641353%" id="linearGradient-7">
            <stop stop-color="#fff" offset="7%"></stop>
            <stop stop-color="#fff" offset="13%"></stop>
            <stop stop-color="#fff" offset="20%"></stop>
            <stop stop-color="#fff" offset="28%"></stop>
            <stop stop-color="#fff" offset="30%"></stop>
            <stop stop-color="#fff" offset="37%"></stop>
            <stop stop-color="#fff" offset="48%"></stop>
            <stop stop-color="#fff" offset="60%"></stop>
            <stop stop-color="#fff" offset="82%"></stop>
            <stop stop-color="#fff" offset="100%"></stop>
        </linearGradient>
    </defs>
    <g id="Page-1" stroke="none" stroke-width="1" fill="none" fill-rule="evenodd">
        <g id="5ceab5395d0f47937d9de7c7_Env0-Color-Copy" transform="translate(0.000000, 0.400000)" fill-rule="nonzero">
            <path d="M69.6772846,39.1289817 L56.8793734,39.1289817 C54.102698,39.1289817 51.9192341,38.4229765 50.3289817,37.0109661 C48.7387293,35.5989556 47.9442994,33.6250653 47.9456901,31.089295 L47.9456901,19.4610966 C47.9456901,16.9281114 48.7401218,14.9542211 50.3289817,13.5394256 C51.9178416,12.1246301 54.1013055,11.4179286 56.8793734,11.4193191 L61.9509138,11.4193191 C64.7275892,11.4193191 66.9006092,12.1260226 68.4699739,13.5394256 C70.0393386,14.9528285 70.8240209,16.9267189 70.8240209,19.4610966 L70.8240209,26.354047 C70.8240209,26.8971279 70.5455178,27.1686684 69.9885117,27.1686684 L52.8960836,27.1686684 C52.4929504,27.1686684 52.2924282,27.3315927 52.2924282,27.6574413 L52.2924282,30.9723238 C52.2924282,34.1221932 53.9822454,35.6978242 57.3618799,35.6992167 L69.6856397,35.6992167 C70.2496084,35.6992167 70.5315927,35.9526545 70.5315927,36.45953 L70.5315927,38.4334204 C70.5232376,38.8950392 70.2412533,39.1289817 69.6772846,39.1289817 Z M52.8960836,24.2986945 L65.9342037,24.2986945 C66.3373368,24.2986945 66.537859,24.1190601 66.537859,23.7556136 L66.537859,19.5780679 C66.537859,16.4644038 64.8480418,14.9068755 61.4684073,14.905483 L57.3618799,14.905483 C53.9822454,14.905483 52.2924282,16.4630113 52.2924282,19.5780679 L52.2924282,23.7556136 C52.2924282,24.1169713 52.4929504,24.2966057 52.8960836,24.2966057 L52.8960836,24.2986945 Z" id="Shape" fill="#fff"></path>
            <path d="M81.8109661,39.1289875 L79.0955614,39.1289875 C78.5315927,39.1289875 78.2496084,38.875544 78.2496084,38.3686684 L78.2496084,12.1817232 C78.2496084,11.6748477 78.5315927,11.4207137 79.0955614,11.4193211 L81.8109661,11.4193211 C82.3749347,11.4193211 82.6569191,11.6734552 82.6569191,12.1817232 L82.6569191,14.2997389 L82.8971279,14.2997389 C83.9039164,12.3808529 85.9564839,11.4207137 89.0548303,11.4193211 L92.4365535,11.4193211 C95.172846,11.4193211 97.305483,12.1260226 98.8344648,13.5394256 C100.363446,14.9528285 101.12933,16.9267189 101.132115,19.4610966 L101.132115,38.3686684 C101.132115,38.8769365 100.853612,39.1303742 100.296606,39.1289875 L97.581201,39.1289875 C97.0172324,39.1289875 96.7456919,38.8762402 96.7456919,38.3686684 L96.7456919,19.6344648 C96.7456919,16.4845953 95.0551784,14.9089643 91.6741514,14.9075718 L88.2715405,14.9075718 C86.4612707,14.9075718 85.0687554,15.3420366 84.0939948,16.2109661 C83.1192341,17.0798956 82.6367276,18.3115753 82.6464752,19.9060052 L82.6464752,38.3791123 C82.6534378,38.8804178 82.3749347,39.1303742 81.8109661,39.1289875 Z" id="Path" fill="#fff"></path>
            <path d="M106.803133,11.4193211 L109.641775,11.4193211 C110.113957,11.3799041 110.535873,11.7132359 110.606789,12.1817232 L117.850653,35.1582245 L118.153525,35.1582245 L125.336815,12.1817232 C125.447439,11.7081424 125.885638,11.385026 126.370757,11.4193211 L129.209399,11.4193211 C129.766406,11.4193211 129.967624,11.6734552 129.813055,12.1817232 L121.111227,38.3143603 C120.990078,38.8574413 120.628024,39.1289817 120.025065,39.1289817 L115.926893,39.1289817 C115.413648,39.1619173 114.952821,38.8162972 114.840731,38.3143603 L106.199478,12.1817232 C106.039339,11.6748477 106.240557,11.4207137 106.803133,11.4193211 Z" id="Path" fill="#fff"></path>
            <path d="M150.932637,39.1289817 L144.896084,39.1289817 C142.158399,39.1289817 139.995126,38.3442994 138.406266,36.7749347 C136.817406,35.2055701 136.02228,33.0123586 136.020888,30.1953003 L136.020888,9.24699739 C136.020888,6.47032202 136.816014,4.28685814 138.406266,2.69660574 C139.996519,1.10635335 142.159791,0.311923412 144.896084,0.313314099 L150.932637,0.313314099 C153.66893,0.313314099 155.832202,1.10774587 157.422454,2.69660574 C159.012707,4.28546562 159.807833,6.4689295 159.807833,9.24699739 L159.807833,30.1953003 C159.807833,33.0137511 159.012707,35.2069626 157.422454,36.7749347 C155.832202,38.3429069 153.66893,39.1275892 150.932637,39.1289817 Z M145.439164,35.2668407 L150.391645,35.2668407 C153.771279,35.2668407 155.461793,33.5157528 155.463185,30.013577 L155.463185,9.42872063 C155.461793,5.92793734 153.771279,4.17754569 150.391645,4.17754569 L145.441253,4.17754569 C142.099217,4.17754569 140.428198,5.92863359 140.428198,9.4308094 L140.428198,30.0156658 C140.428198,33.5150566 142.09852,35.2654482 145.439164,35.2668407 L145.439164,35.2668407 Z" id="Shape" fill="#fff"></path>
            <circle id="Oval" fill="url(#linearGradient-1)" cx="33.6898172" cy="4.40313316" r="4.26318538"></circle>
            <rect id="Rectangle" fill="url(#linearGradient-2)" transform="translate(11.766057, 4.401044) rotate(-180.000000) translate(-11.766057, -4.401044) " x="0.194255875" y="0.137859008" width="23.1436031" height="8.52637076" rx="1"></rect>
            <path d="M-6.42140992,22.9785901 L15.3321149,22.9785901 C15.8843996,22.9785901 16.3321149,23.4263053 16.3321149,23.9785901 L16.3321149,30.5049608 C16.3321149,31.0572456 15.8843996,31.5049608 15.3321149,31.5049608 L-6.42140992,31.5049608 C-6.97369467,31.5049608 -7.42140992,31.0572456 -7.42140992,30.5049608 L-7.42140992,23.9785901 C-7.42140992,23.4263053 -6.97369467,22.9785901 -6.42140992,22.9785901 Z" id="Rectangle" fill="url(#linearGradient-3)" transform="translate(4.455352, 27.241775) rotate(90.000000) translate(-4.455352, -27.241775) "></path>
            <rect id="Rectangle" fill="url(#linearGradient-4)" transform="translate(26.383290, 34.853264) rotate(-180.000000) translate(-26.383290, -34.853264) " x="14.8114883" y="30.5900783" width="23.1436031" height="8.52637076" rx="1"></rect>
            <circle id="Oval" fill="url(#linearGradient-5)" cx="33.6898172" cy="19.6281984" r="4.26318538"></circle>
            <circle id="Oval" fill="url(#linearGradient-6)" cx="19.0725849" cy="19.6281984" r="4.26318538"></circle>
            <rect id="Rectangle" fill="url(#linearGradient-7)" transform="translate(147.582245, 19.793211) rotate(-180.000000) translate(-147.582245, -19.793211) " x="144.309138" y="16.5201044" width="6.5462141" height="6.5462141" rx="1"></rect>
        </g>
    </g>
</svg>

<svg width="160" height="40" xmlns="http://www.w3.org/2000/svg"><defs><linearGradient x1="121.803%" y1="50%" x2="-379.74%" y2="50%" id="a"><stop stop-color="#fff" offset="0%"/><stop stop-color="#fff" offset="18%"/><stop stop-color="#fff" offset="34%"/><stop stop-color="#fff" offset="43%"/><stop stop-color="#fff" offset="51%"/><stop stop-color="#fff" offset="56%"/><stop stop-color="#fff" offset="58%"/><stop stop-color="#fff" offset="64%"/><stop stop-color="#fff" offset="69%"/><stop stop-color="#fff" offset="74%"/><stop stop-color="#fff" offset="77%"/><stop stop-color="#fff" offset="82%"/><stop stop-color="#fff" offset="87%"/><stop stop-color="#fff" offset="91%"/><stop stop-color="#fff" offset="95%"/></linearGradient><linearGradient x1="-71.182%" y1="49.976%" x2="113.592%" y2="49.976%" id="b"><stop stop-color="#fff" offset="0%"/><stop stop-color="#fff" offset="18%"/><stop stop-color="#fff" offset="34%"/><stop stop-color="#fff" offset="43%"/><stop stop-color="#fff" offset="51%"/><stop stop-color="#fff" offset="56%"/><stop stop-color="#fff" offset="58%"/><stop stop-color="#fff" offset="64%"/><stop stop-color="#fff" offset="69%"/><stop stop-color="#fff" offset="74%"/><stop stop-color="#fff" offset="77%"/><stop stop-color="#fff" offset="82%"/><stop stop-color="#fff" offset="87%"/><stop stop-color="#fff" offset="91%"/><stop stop-color="#fff" offset="95%"/></linearGradient><linearGradient x1="50%" y1="-376.458%" x2="50%" y2="142.7%" id="c"><stop stop-color="#fff" offset="0%"/><stop stop-color="#fff" offset="18%"/><stop stop-color="#fff" offset="34%"/><stop stop-color="#fff" offset="43%"/><stop stop-color="#fff" offset="51%"/><stop stop-color="#fff" offset="56%"/><stop stop-color="#fff" offset="58%"/><stop stop-color="#fff" offset="64%"/><stop stop-color="#fff" offset="69%"/><stop stop-color="#fff" offset="74%"/><stop stop-color="#fff" offset="77%"/><stop stop-color="#fff" offset="82%"/><stop stop-color="#fff" offset="87%"/><stop stop-color="#fff" offset="91%"/><stop stop-color="#fff" offset="95%"/></linearGradient><linearGradient x1="-12.365%" y1="49.976%" x2="178.899%" y2="49.976%" id="d"><stop stop-color="#fff" offset="0%"/><stop stop-color="#fff" offset="18%"/><stop stop-color="#fff" offset="34%"/><stop stop-color="#fff" offset="43%"/><stop stop-color="#fff" offset="51%"/><stop stop-color="#fff" offset="56%"/><stop stop-color="#fff" offset="58%"/><stop stop-color="#fff" offset="64%"/><stop stop-color="#fff" offset="69%"/><stop stop-color="#fff" offset="74%"/><stop stop-color="#fff" offset="77%"/><stop stop-color="#fff" offset="82%"/><stop stop-color="#fff" offset="87%"/><stop stop-color="#fff" offset="91%"/><stop stop-color="#fff" offset="95%"/></linearGradient><linearGradient x1="127.683%" y1="50%" x2="-238.266%" y2="50%" id="e"><stop stop-color="#fff" offset="0%"/><stop stop-color="#fff" offset="18%"/><stop stop-color="#fff" offset="40%"/><stop stop-color="#fff" offset="52%"/><stop stop-color="#fff" offset="63%"/><stop stop-color="#fff" offset="70%"/><stop stop-color="#fff" offset="72%"/><stop stop-color="#fff" offset="80%"/><stop stop-color="#fff" offset="87%"/><stop stop-color="#fff" offset="93%"/></linearGradient><linearGradient x1="299.118%" y1="50%" x2="-66.83%" y2="50%" id="f"><stop stop-color="#fff" offset="0%"/><stop stop-color="#fff" offset="18%"/><stop stop-color="#fff" offset="40%"/><stop stop-color="#fff" offset="52%"/><stop stop-color="#fff" offset="63%"/><stop stop-color="#fff" offset="70%"/><stop stop-color="#fff" offset="72%"/><stop stop-color="#fff" offset="80%"/><stop stop-color="#fff" offset="87%"/><stop stop-color="#fff" offset="93%"/></linearGradient><linearGradient x1="-42.884%" y1="213.497%" x2="155.424%" y2="-135.641%" id="g"><stop stop-color="#fff" offset="7%"/><stop stop-color="#fff" offset="13%"/><stop stop-color="#fff" offset="20%"/><stop stop-color="#fff" offset="28%"/><stop stop-color="#fff" offset="30%"/><stop stop-color="#fff" offset="37%"/><stop stop-color="#fff" offset="48%"/><stop stop-color="#fff" offset="60%"/><stop stop-color="#fff" offset="82%"/><stop stop-color="#fff" offset="100%"/></linearGradient></defs><g transform="translate(0 .4)" fill-rule="nonzero" fill="none"><path d="M69.677 39.129H56.88c-2.776 0-4.96-.706-6.55-2.118-1.59-1.412-2.385-3.386-2.383-5.922V19.461c0-2.533.794-4.507 2.383-5.922 1.589-1.414 3.772-2.121 6.55-2.12h5.072c2.777 0 4.95.707 6.519 2.12 1.57 1.414 2.354 3.388 2.354 5.922v6.893c0 .543-.278.815-.835.815H52.896c-.403 0-.604.163-.604.488v3.315c0 3.15 1.69 4.726 5.07 4.727h12.324c.564 0 .846.254.846.76v1.974c-.009.462-.29.696-.855.696Zm-16.78-14.83h13.037c.403 0 .604-.18.604-.543v-4.178c0-3.114-1.69-4.671-5.07-4.673h-4.106c-3.38 0-5.07 1.558-5.07 4.673v4.178c0 .361.201.54.604.54v.003ZM81.811 39.129h-2.715c-.564 0-.846-.253-.846-.76V12.182c0-.507.282-.761.846-.763h2.715c.564 0 .846.254.846.763V14.3h.24c1.007-1.92 3.06-2.88 6.158-2.88h3.382c2.736 0 4.868.706 6.397 2.12 1.53 1.413 2.295 3.387 2.298 5.921V38.37c0 .508-.278.761-.835.76H97.58c-.564 0-.835-.253-.835-.76V19.634c0-3.15-1.69-4.725-5.072-4.726h-3.402c-1.81 0-3.203.434-4.178 1.303-.975.869-1.457 2.1-1.448 3.695v18.473c.007.501-.271.751-.835.75ZM106.803 11.42h2.839a.9.9 0 0 1 .965.762l7.244 22.976h.303l7.183-22.976a.99.99 0 0 1 1.034-.763h2.838c.557 0 .759.254.604.763l-8.702 26.132c-.12.543-.483.815-1.086.815h-4.098a1.044 1.044 0 0 1-1.086-.815l-8.642-26.132c-.16-.507.042-.761.604-.763ZM150.933 39.129h-6.037c-2.738 0-4.9-.785-6.49-2.354-1.589-1.57-2.384-3.763-2.385-6.58V9.247c0-2.777.795-4.96 2.385-6.55 1.59-1.59 3.754-2.385 6.49-2.384h6.037c2.736 0 4.9.795 6.49 2.384 1.59 1.588 2.385 3.772 2.385 6.55v20.948c0 2.819-.795 5.012-2.386 6.58-1.59 1.568-3.753 2.353-6.49 2.354Zm-5.494-3.862h4.953c3.38 0 5.07-1.751 5.071-5.253V9.429c-.001-3.501-1.692-5.251-5.071-5.251h-4.95c-3.343 0-5.014 1.75-5.014 5.253v20.585c0 3.5 1.67 5.25 5.011 5.25Z" fill="#fff"/><circle fill="url(#a)" cx="33.69" cy="4.403" r="4.263"/><rect fill="url(#b)" transform="rotate(-180 11.766 4.401)" x=".194" y=".138" width="23.144" height="8.526" rx="1"/><path d="M-6.421 22.979h21.753a1 1 0 0 1 1 1v6.526a1 1 0 0 1-1 1H-6.42a1 1 0 0 1-1-1v-6.526a1 1 0 0 1 1-1Z" fill="url(#c)" transform="rotate(90 4.455 27.242)"/><rect fill="url(#d)" transform="rotate(-180 26.383 34.853)" x="14.811" y="30.59" width="23.144" height="8.526" rx="1"/><circle fill="url(#e)" cx="33.69" cy="19.628" r="4.263"/><circle fill="url(#f)" cx="19.073" cy="19.628" r="4.263"/><rect fill="url(#g)" transform="rotate(-180 147.582 19.793)" x="144.309" y="16.52" width="6.546" height="6.546" rx="1"/></g></svg>
